src/icons/System/16/Refresh_16.svg

<?xml version="1.0" encoding="utf-8"?>
<!-- Generator: Adobe Illustrator 23.0.1, SVG Export Plug-In . SVG Version: 6.00 Build 0)  -->
<svg version="1.1" id="Layer_1" xmlns="http://www.w3.org/2000/svg" xmlns:xlink="http://www.w3.org/1999/xlink" x="0px" y="0px"
	 viewBox="0 0 20 20" style="enable-background:new 0 0 20 20;" xml:space="preserve">
<title>Source/System Icons/16/Refresh_16 Copy</title>
<desc>Created with Sketch.</desc>
<path d="M10,17c-3.9,0-7-3.1-7-7s3.1-7,7-7c2.5,0,4.8,1.4,6.1,3.5L15.2,7c-1.1-1.9-3.1-3-5.2-3c-3.3,0-6,2.7-6,6s2.7,6,6,6
	s6-2.7,6-5.9h1C17,13.9,13.8,17,10,17z M17,8l-4.2-0.9l3.4-3.3L17,8z"/>
</svg>

<?xml version="1.0" encoding="UTF-8"?>
<svg viewBox="0 0 20 20" version="1.1" xmlns="http://www.w3.org/2000/svg" xmlns:xlink="http://www.w3.org/1999/xlink">
    <!-- Generator: Sketch 51.2 (57519) - http://www.bohemiancoding.com/sketch -->
    <title>Source/System Icons/16/Refresh_16 Copy</title>
    <desc>Created with Sketch.</desc>
    <defs>
        <path d="M10,17 C6.1,17 3,13.9 3,10 C3,6.1 6.1,3 10,3 C12.5,3 14.8,4.4 16.1,6.5 L15.2,7 C14.1,5.1 12.1,4 10,4 C6.7,4 4,6.7 4,10 C4,13.3 6.7,16 10,16 C13.3,16 16,13.3 16,10.1 L17,10.1 C17,13.9 13.8,17 10,17 Z M17,8 L12.8,7.1 L16.2,3.8 L17,8 Z" id="path-1"></path>
    </defs>
    <g id="Source/System-Icons/16/Refresh_16-Copy" stroke="none" stroke-width="1" fill="none" fill-rule="evenodd">
        <mask id="mask-2" fill="white">
            <use xlink:href="#path-1"></use>
        </mask>
        <use id="Symbols" fill="#000000" fill-rule="nonzero" xlink:href="#path-1"></use>
        <g id="Colors/Basic/Fresh-Asphalt" mask="url(#mask-2)" fill="#000000">
            <rect id="Rectangle" x="0" y="0" width="20" height="20"></rect>
        </g>
    </g>
</svg>
